!!!OTL: Allerlei Hausrat (188), S. 410
!!!id: T0367
**kern
*clefG2
*k[f#]
*G:
{8g
=1
8g
8d
8g
8g
=2yy
4g
=3
8f#
8g
8a
8a}
=4
{8d
8a
8a
8a
=5
8g
8a
4b}
=6
{8g
8b
8dd
8dd
=7
8ee
8ee
8dd
8dd}
=8
{8cc
8cc
8b
8b
=9
8a
8a
4g}
==
*-
!!!minrhy: 8
!!!meters: 2/4 ]  ZZ[4
!!!cut: Allerlei Hausrat (188), S. 410
!!!reg: Luxemburg
!!!trd: Singendes Volk, Esch-Alzette, 1937 posth.
!!!rhy1:   XXXX_  XXXX
!!!rhy2: XXXX  XXX_
!!!key: T0367  08  G 2/4 ]  ZZ[4
!!!mod: HEPTATONIK IONISCH]  AMBITUS[9
!!!kad: 2351
!!!akz: -7_-51_16_42_
!!!fot: 'a__b__c__d__
!!!for: 'a__aw_aw_aw_
!!!fok: '/__/__/__\__
!! PHRAS[VORWIEGEND VOLLTAKTIG]
!!!fkt: Hochzeits-, Ehestandslied
!!!bem: Reuland, fff Katharina Prim, 1907
!! THILL; Mathias
!! PR[47] 2K[4] 2G[14] 3K[2] 3G[0] 4A[0] 4Ü[0] 5A[0] 6K[2] 6G[0]
!! 7K[0] 7G[0] 8A[0] MEHR[0] SI[22] ABS[49] SR[18] SP[4]
!! ST[13] 2k[10] 2g[14] 3k[0] 3g[6] 4d[0] 4ü[0] 5d[0] 6k[0] 6g[0]
!! 7k[0] 7g[0] 8d[0] mehr[0] si[31] dm[-9] sr[24] sp[6]
!! 1F[59] 2F[39] 3F[2] 4F[0] LF[0] 2P[0] 3P[0] 4P[0] TRI[0] DF[3] AB[54]
!! TF[0] U3K[0] U3[0] U4[0] U4Ü[0] U5[0] U6K[0] U6[0] U7K[0] U7[4]
!! N1[24] N2K[0] N2[14] N3K[0] N3[26] N4[24] N4Ü[0] N5[8] N6K[0] N6[0]
!!!n7k: 0] N7[0] O1[0] O2K[0] O2[0] O3K[0] O3[0] HÖ[0
